packages/react-icons/icons/vertical-bars-circle-filled.svg

<svg width="24" height="24" viewBox="0 0 24 24" xmlns="http://www.w3.org/2000/svg">
<path fill-rule="evenodd" clip-rule="evenodd" d="M2 12C2 6.48 6.47 2 11.99 2C17.52 2 22 6.48 22 12C22 17.52 17.52 22 11.99 22C6.47 22 2 17.52 2 12ZM11 17L11 6C11 5.45 11.45 5 12 5C12.55 5 13 5.45 13 6L13 17C13 17.55 12.55 18 12 18C11.45 18 11 17.55 11 17ZM6 10C6 9.44772 6.44772 9 7 9C7.55228 9 8 9.44772 8 10V17C8 17.5523 7.55228 18 7 18C6.44772 18 6 17.5523 6 17V10ZM17 13C16.4477 13 16 13.4477 16 14V17C16 17.5523 16.4477 18 17 18C17.5523 18 18 17.5523 18 17V14C18 13.4477 17.5523 13 17 13Z" />
</svg>

<svg xmlns="http://www.w3.org/2000/svg" width="24" height="24"><path fill-rule="evenodd" d="M2 12C2 6.48 6.47 2 11.99 2 17.52 2 22 6.48 22 12s-4.48 10-10.01 10C6.47 22 2 17.52 2 12Zm9 5V6c0-.55.45-1 1-1s1 .45 1 1v11c0 .55-.45 1-1 1s-1-.45-1-1Zm-5-7a1 1 0 0 1 2 0v7a1 1 0 1 1-2 0v-7Zm11 3a1 1 0 0 0-1 1v3a1 1 0 1 0 2 0v-3a1 1 0 0 0-1-1Z" clip-rule="evenodd"/></svg>
